packages/core/src/svgs/wallets/mono/kraken.svg

<svg width="24" height="24" viewBox="0 0 24 24" fill="none" xmlns="http://www.w3.org/2000/svg">
<path d="M11.9976 4C6.47589 4 2 8.74914 2 14.6074V19.1531C2 19.9892 2.63875 20.6667 3.42723 20.6667C4.21572 20.6667 4.85914 19.9892 4.85914 19.1531V14.6074C4.85914 13.7687 5.49555 13.0913 6.28638 13.0913C7.07487 13.0913 7.7136 13.7687 7.7136 14.6074V19.1531C7.7136 19.9892 8.35238 20.6667 9.14084 20.6667C9.93167 20.6667 10.5704 19.9892 10.5704 19.1531V14.6074C10.5704 13.7687 11.2092 13.0913 11.9976 13.0913C12.7885 13.0913 13.4295 13.7687 13.4295 14.6074V19.1531C13.4295 19.9892 14.0683 20.6667 14.8568 20.6667C15.6453 20.6667 16.284 19.9892 16.284 19.1531V14.6074C16.284 13.7687 16.9228 13.0913 17.716 13.0913C18.5044 13.0913 19.1431 13.7687 19.1431 14.6074V19.1531C19.1431 19.9892 19.7819 20.6667 20.5728 20.6667C21.3612 20.6667 22 19.9892 22 19.1531V14.6074C22 8.74914 17.5218 4 11.9976 4Z" fill="white"/>
</svg>

<svg xmlns="http://www.w3.org/2000/svg" width="24" height="24" fill="none" viewBox="0 0 24 24">
    <path fill="#fff" d="M11.998 4C6.476 4 2 8.75 2 14.607v4.546c0 .836.639 1.514 1.427 1.514.789 0 1.432-.678 1.432-1.514v-4.546c0-.838.637-1.516 1.427-1.516.789 0 1.428.678 1.428 1.516v4.546c0 .836.638 1.514 1.427 1.514.79 0 1.43-.678 1.43-1.514v-4.546c0-.838.638-1.516 1.427-1.516.79 0 1.432.678 1.432 1.516v4.546c0 .836.638 1.514 1.427 1.514.788 0 1.427-.678 1.427-1.514v-4.546c0-.838.639-1.516 1.432-1.516.788 0 1.427.678 1.427 1.516v4.546c0 .836.639 1.514 1.43 1.514.788 0 1.427-.678 1.427-1.514v-4.546C22 8.75 17.522 4 11.998 4"/>
</svg>
